docs/assets/img/website_icon.svg

<svg xmlns="http://www.w3.org/2000/svg" width="16" height="16" viewBox="0 0 16 16">
  <path fill="#000000" fill-rule="evenodd" d="M1.2728817,9.32536671 L1.18746209,9.66774744 L3.78758343,9.66774744 L3.87300305,9.32536671 C3.50802832,9.29275903 3.36113246,9.25199941 3.36113246,9.03257684 C3.36113246,8.95920954 3.37666331,8.86953839 3.40707787,8.75541149 L4.28457029,5.05647679 C4.64177959,5.15429985 4.99834177,5.22698782 5.34002023,5.22698782 C6.48865522,5.22698782 7.24125381,4.42062686 7.24125381,3.56535435 C7.24125381,3.14960632 6.96946413,2.82352942 6.55854401,2.82352942 C6.18580386,2.82352942 5.92177959,3.17406208 5.92177959,3.49198705 C5.92177959,3.72839279 5.99166836,3.89143123 6.05379173,4.02118267 C6.10038424,4.12715765 6.13921134,4.21750813 6.13921134,4.30649994 C6.13921134,4.51029799 5.96837211,4.68148836 5.61892823,4.68148836 C5.27013146,4.68148836 4.8896259,4.46953839 4.45540951,4.21750813 L4.3771082,4.16791727 C3.76428717,3.81806394 3.0582811,3.40231591 2.24291204,3.40231591 C1.04056623,3.40231591 0,4.17674851 0,5.39070559 C0,6.18076272 0.520283112,6.71811026 1.23470172,6.71811026 C1.82422649,6.71811026 2.26620829,6.36010501 2.26620829,5.84653391 C2.26620829,5.53676087 2.07207281,5.22698782 1.69997978,5.22698782 C1.40489383,5.22698782 1.24958544,5.39070559 1.12533873,5.52113635 C1.0321537,5.62643201 0.954499501,5.70795124 0.838665319,5.70795124 C0.667826092,5.70795124 0.543579369,5.54491279 0.543579369,5.27657868 C0.543579369,4.73855182 0.970677453,4.31465186 1.63009101,4.31465186 C2.00218402,4.31465186 2.33609708,4.42877877 2.74766432,4.56736145 L2.97286148,4.64072875 L1.99506573,8.75541149 C1.87858443,9.21939172 1.77763398,9.28528643 1.2728817,9.32536671 Z M14.921901,8.82877879 L14.1919515,6.94636408 C15.3250556,6.79962948 16,6.32749732 16,5.22698782 C16,4.24128456 15.1548636,3.96479854 13.6250759,3.96479854 L10.4127806,3.96479854 C8.96905968,3.96479854 7.82754299,4.77931143 7.82754299,6.09109158 C7.82754299,7.07679484 8.43324572,7.5740621 9.14701722,7.5740621 C9.98568254,7.5740621 10.5758544,6.95451601 10.5758544,6.20521849 C10.5758544,5.83023006 10.3344793,5.47969741 9.90026292,5.47969741 C9.55858445,5.47969741 9.2634985,5.74871084 9.2634985,6.18891465 C9.2634985,6.29488963 9.28679476,6.37640885 9.31009103,6.45724875 C9.33403441,6.53061605 9.35668355,6.60466268 9.35668355,6.69433382 C9.35668355,6.86552419 9.23243682,6.98712369 9.04671388,6.98712369 C8.68173916,6.98712369 8.4254803,6.68550257 8.4254803,6.09109158 C8.4254803,5.22698782 9.13213349,4.51844992 10.4127806,4.51844992 L10.9401821,4.51844992 C11.2430334,4.51844992 11.4604651,4.59181721 11.4604651,4.82007104 C11.4604651,4.85267873 11.4520526,4.89343834 11.4449343,4.93419795 L10.5441456,8.75541149 C10.4354298,9.21939172 10.3189485,9.28528643 9.8148433,9.32536671 L9.72942368,9.66774744 L12.329545,9.66774744 L12.4143175,9.32536671 C12.04999,9.29275903 11.9102123,9.25199941 11.9102123,9.03257684 C11.9102123,8.95920954 11.9257433,8.86953839 11.9490395,8.75541149 L12.3528412,7.01973138 L12.7482306,7.01973138 L13.7337918,9.66774744 L15.4564206,9.66774744 L15.5424874,9.32536671 C15.201456,9.28528643 15.0461477,9.17863212 14.921901,8.82877879 Z M13.2691608,6.46608 L12.4848535,6.46608 L12.8886552,4.76300758 C12.9190697,4.61627299 13.0277856,4.51844992 13.1675633,4.51844992 L13.5558342,4.51844992 C14.1686553,4.51844992 14.517452,4.67333644 14.517452,5.26027484 C14.517452,6.14815503 14.0450557,6.46608 13.2691608,6.46608 Z M11.8539131,11.5386136 C11.4656421,11.5386136 11.2948029,11.7994751 11.131729,12.0515054 C10.9770678,12.2797592 10.8295248,12.508013 10.518908,12.508013 C9.82843278,12.508013 8.74903946,11.2532963 7.55445907,7.52175392 L8.05662287,7.12434772 C7.95373106,6.98644437 7.87413552,6.81932997 7.82107181,6.62368383 L6.07967645,8.00203801 L6.4595349,6.40561991 C6.56048536,5.93348774 6.68473207,5.87574497 7.18948435,5.83498535 L7.26713855,5.49328395 L4.6670172,5.49328395 L4.589363,5.83498535 C4.96210315,5.86759304 5.09346816,5.90835266 5.09346816,6.12845456 C5.09346816,6.20182185 5.07793733,6.291493 5.05528819,6.40561991 L4.13896867,10.2838969 C4.03025279,10.7478772 3.91441861,10.8137718 3.40966634,10.8538521 L3.32424672,11.1962329 L5.92436806,11.1962329 L6.00978768,10.8538521 C5.64481296,10.8212444 5.5050354,10.7804848 5.5050354,10.5610622 C5.5050354,10.487695 5.52056625,10.3980238 5.5438625,10.2838969 L5.87777555,8.84983792 L6.38964612,8.45039373 C7.64699699,12.0352015 9.16837212,13.1764706 10.7518706,13.1764706 C11.9005056,13.1764706 12.4201416,12.6710515 12.4201416,12.1330246 C12.4201416,11.8320828 12.2188878,11.5386136 11.8539131,11.5386136 Z"/>
</svg>

<svg xmlns="http://www.w3.org/2000/svg" viewBox="0 0 16 16"><path fill-rule="evenodd" d="M1.273 9.325l-.086.343h2.6l.086-.343c-.365-.032-.512-.073-.512-.292 0-.074.017-.163.047-.278l.878-3.7c.357.1.713.172 1.055.172 1.15 0 1.9-.806 1.9-1.662 0-.415-.27-.74-.68-.74-.374 0-.638.35-.638.667 0 .236.07.4.132.53.046.105.085.196.085.284 0 .204-.172.375-.52.375-.35 0-.73-.21-1.165-.462l-.078-.05c-.613-.35-1.32-.766-2.134-.766C1.04 3.402 0 4.177 0 5.392c0 .79.52 1.326 1.235 1.326.59 0 1.03-.358 1.03-.87 0-.31-.193-.62-.565-.62-.295 0-.45.163-.575.293-.093.106-.17.188-.286.188-.172 0-.296-.163-.296-.43 0-.54.427-.963 1.086-.963.372 0 .706.114 1.118.252l.225.074-.978 4.115c-.116.464-.217.53-.722.57zm13.65-.496l-.73-1.884C15.324 6.8 16 6.326 16 5.226c0-.985-.845-1.26-2.375-1.26h-3.212c-1.444 0-2.585.813-2.585 2.125 0 .987.605 1.484 1.32 1.484.838 0 1.428-.62 1.428-1.37 0-.374-.242-.724-.676-.724-.34 0-.637.27-.637.71 0 .105.024.186.047.267.024.074.047.148.047.237 0 .172-.125.293-.31.293-.365 0-.622-.3-.622-.896 0-.863.707-1.572 1.988-1.572h.527c.303 0 .52.074.52.302 0 .033-.008.073-.015.114l-.9 3.82c-.11.465-.226.53-.73.57l-.086.344h2.6l.084-.343c-.364-.032-.504-.073-.504-.292 0-.074.016-.163.04-.278l.403-1.735h.395l.986 2.648h1.722l.086-.343c-.34-.04-.496-.146-.62-.496zm-1.654-2.364h-.785l.404-1.703c.03-.147.138-.245.278-.245h.388c.613 0 .96.155.96.742 0 .888-.47 1.206-1.247 1.206zm-1.416 5.073c-.388 0-.56.26-.722.512-.155.228-.302.456-.613.456-.692 0-1.77-1.255-2.966-4.986l.503-.398c-.103-.138-.183-.305-.236-.5L6.08 8.002l.38-1.596c.1-.473.225-.53.73-.57l.077-.343h-2.6l-.078.342c.372.033.503.073.503.293 0 .074-.015.163-.038.278l-.916 3.878c-.11.464-.226.53-.73.57l-.086.342h2.6l.086-.342c-.365-.033-.505-.074-.505-.293 0-.072.016-.162.04-.276l.333-1.434.512-.4c1.257 3.585 2.778 4.726 4.362 4.726 1.15 0 1.668-.505 1.668-1.043 0-.3-.2-.594-.566-.594z"/></svg>
